!!!!SEGMENT: pl-wnifc--6730-n--001-008_sowinski-wojciech--chants-religieux-de-la-pologne-op-93-chant-pour-la-fete-de-la-nativite-chretiens-rejouissez-vous.krn
!!!cenid: 18xx:4022
!!!COM: Sowiński, Wojciech
!!!COM-rismID: pe30008543
!!!CDT: ~1803-1880/03/05
!!!CNT:
!!!GTL: Chants religieux de la Pologne op. 93
!!!OTL: Chant pour la fête de la nativité/Chrétiens réjouissez vous
!!!OMV: 008
!!!PDT: 1830
!!!AGN:
!!!YEC: Copyright 2022 Narodowy Instytut Fryderyka Chopina (https://polishscores.org)
!!!YEM: License CC-BY-4.0 (https://creativecommons.org/licenses/by/4.0)
!!!SMS-siglum: PL-Wnifc
!!!SMS-shelfmark: 6730/n
!!!SMS-shelfwork: 001-008 G
!!!SMS-variant:
!!!SMS-altvar:
!!!NIFC-rismSourceID: 1001138221
!!!NIFC-rismChildID: 1001138230
!!!NIFC-islandoraID: nifc:213350
!!!URL-pdf-islandora: https://repozytorium.nifc.pl/islandora/object/nifc%3A213350/datastream/PDF/view
!!!URL-scan: https://polish.musicsources.pl/pl/lokalizacje/galeria/druki-muzyczne/16913 @EN{Scan on Polish Music Sources Website} @PL{Skany w portalu Dziedzictwo Muzyki Polskiej w otwartym dostępie}
!!!IIIF:
!!!ONB-nifc: UWAGA: str. 32-35
!!!AIN: 1 calto 2 organ 2 soprn
!!!key: E-
**kern	**kern	**dynam	**kern	**text	**dynam	**kern	**text	**dynam	**kern	**text	**dynam
*part5	*part4	*	*part3	*	*	*part2	*	*	*part1	*	*
*staff5	*staff4	*	*staff3	*	*	*staff2	*	*	*staff1	*	*
*I"ORGUE.	*I"ORGUE.	*	*I"CONTRALTO.	*	*	*I"2.d DESSUS.	*	*	*I"1.er DESSUS.	*	*
*I'org	*I'org	*	*I'Contra-A	*	*	*I'S 2	*	*	*I'S 1	*	*
*Iorgan	*Iorgan	*	*Icalto	*	*	*Isoprn	*	*	*Isoprn	*	*
*ICklav	*ICklav	*	*ICvox	*	*	*ICvox	*	*	*ICvox	*	*
*clefF4	*clefG2	*	*clefG2	*	*	*clefG2	*	*	*clefG2	*	*
*k[]	*k[]	*	*k[]	*	*	*k[]	*	*	*k[]	*	*
*E-:	*E-:	*	*E-:	*	*	*E-:	*	*	*E-:	*	*
*M3/1	*M3/1	*	*M3/1	*	*	*M3/1	*	*	*M3/1	*	*
=1	=1	=1	=1	=1	=1	=1	=1	=1	=1	=1	=1
!	!	!	!	!	!	!	!	!	!LO:TX:a:B:t=Allo. con moto.	!	!
!	!	!	!	!	!	!	!	!	!LO:TX:a:B:t=Allegro	!	!
!	!LO:TX:a:B:t=Allo. con moto.	!	!	!	!	!	!	!	!	!	!
2C\ 2c	2e\ 2g 2cc	f	1%3r	.	.	1%3r	.	.	1%3r	.	.
4GG\ 4G	4g\ 4b 4dd	.	.	.	.	.	.	.	.	.	.
2CC/ 2C	2g\ 2cc 2ee	.	.	.	.	.	.	.	.	.	.
4FFF/ 4FF	4a\ 4cc 4ff	.	.	.	.	.	.	.	.	.	.
2CC/ 2C	2g\ 2cc 2ee	.	.	.	.	.	.	.	.	.	.
4GGG/ 4GG	4g\ 4b 4dd	.	.	.	.	.	.	.	.	.	.
2.CC/ 2.C	2.g\ 2.cc 2.ee	.	.	.	.	.	.	.	.	.	.
=2	=2	=2	=2	=2	=2	=2	=2	=2	=2	=2	=2
2C\ 2c	2e\ 2g 2cc	<	1%3r	.	.	1%3r	.	.	1%3r	.	.
4GG\ 4G	4g\ 4b 4dd	.	.	.	.	.	.	.	.	.	.
2CC/ 2C	2g\ 2cc 2ee	.	.	.	.	.	.	.	.	.	.
4FFF/ 4FF	4a\ 4cc 4ff	.	.	.	.	.	.	.	.	.	.
2CC/ 2C	2g\ 2cc 2ee	[ >	.	.	.	.	.	.	.	.	.
4FF\ 4F	4a\ 4dd	.	.	.	.	.	.	.	.	.	.
!LO:TX:t=P:problem:LO:N:vis=2	!LO:TX:t=P:problem:LO:N:vis=2	!	!	!	!	!	!	!	!	!	!
2.EE;\ 2.E	2.e;\ 2.g#X 2.ee	]]	.	.	.	.	.	.	.	.	.
=3	=3	=3	=3	=3	=3	=3	=3	=3	=3	=3	=3
*	*^	*	*	*	*	*	*	*	*	*	*
2FF\ 2F	4dd/	2a\	p	4%9r	.	.	4%9r	.	.	4%9r	.	.
.	4dd/	.	.	.	.	.	.	.	.	.	.	.
4DD\ 4D	4dd/	4f\ 4b	.	.	.	.	.	.	.	.	.	.
2EE\ 2E	2cc/	2e\ 2a	.	.	.	.	.	.	.	.	.	.
4EE\ 4E	4b/	4d\ 4g#X	.	.	.	.	.	.	.	.	.	.
2.AA;\ 2.A	2.a;/	2.c\	.	.	.	.	.	.	.	.	.	.
!LO:LB:g=original	!LO:LB:g=original	!LO:LB:g=original	!	!LO:LB:g=original	!	!	!LO:LB:g=original	!	!	!LO:LB:g=original	!	!
*	*v	*v	*	*	*	*	*	*	*	*	*	*
=4	=4	=4	=4	=4	=4	=4	=4	=4	=4	=4	=4
!	!	!	!	!	!LO:DY:a	!	!	!LO:DY:a	!LO:TX:a:t=1.re STROPHE.	!	!LO:DY:a
2CC/ 2C	2e\ 2gn 2cc	f	2e/	Chré-	f	2g/	Chré-	f	2cc\	Chré-	f
4GG/	4g\ 4b 4dd	.	4g/	-tiens	.	4b\	-tiens	.	4dd\	-tiens	.
2C/	2g\ 2cc 2ee	.	2g/	ré-	.	2cc\	ré-	.	2ee\	ré-	.
4FF/	4a\ 4cc 4ff	.	4a/	-jou-	.	4cc\	-jou-	.	4ff\	-jou-	.
2C/	2g\ 2cc 2ee	.	2g/	-is	.	2cc\	-is	.	2ee\	-is-	.
4GG\ 4G	4g\ 4b 4dd	.	4g/	-sez-	.	4b\	-sez-	.	4dd\	-sez-	.
2.CC/ 2.C	2.g\ 2.cc 2.ee	.	2.c/	-vous	.	2.cc\	-vous	.	2.ee\	-vous	.
=5	=5	=5	=5	=5	=5	=5	=5	=5	=5	=5	=5
2C\ 2c	2e\ 2g 2cc	<	2e/	Un	.	2g/	Un	.	2cc\	Un	.
4GG\ 4G	4g\ 4b 4dd	.	4g/	Dieu	.	4b\	Dieu	.	4dd\	Dieu	.
2CC/ 2C	2g\ 2cc 2ee	.	2g/	des-	.	2cc\	des-	.	2ee\	des-	.
4FFF/ 4FF	4a\ 4cc 4ff	.	4a/	-cend	.	4cc\	-cend	.	4ff\	-cend	.
!	!	!	!LO:TX:a:i:t=rit.	!	!	!LO:TX:a:i:t=rit.	!	!	!LO:TX:a:i:t=rit.	!	!
2CC/ 2C	2g\ 2cc 2ee	[ >	2g/	par-	.	2cc\	par-	.	2ee\	par-	.
4FF\ 4F	4a\ 4dd	.	4f/	-mi	.	4a\	-mi	.	4dd\	-mi	.
2.EE;\ 2.E	2.g#X;\ 2.ee	]]	2.e;/	nous	.	2.g#X;\	nous	.	2.ee;\	nous	.
=6	=6	=6	=6	=6	=6	=6	=6	=6	=6	=6	=6
*	*^	*	*	*	*	*	*	*	*	*	*
2FF\ 2F	4dd^/	2f\ 2a	f	2.f/	Un	.	(2a^\	Un	.	2.dd^\	Un	.
.	4dd^/	.	.	.	.	.	.	.	.	.	.	.
4DD\ 4D	4dd^/	4f\ 4b	>	.	.	.	4b\)	.	.	.	.	.
!	!	!	!	!	!	!	!	!	!LO:DY:a	!	!	!LO:DY:a
2EE\ 2E	2cc^/	2e\ 2a	.	2e/	Ré-	.	2a\	Ré-	p	2cc\	Ré-	p
4EE\ 4E	4b^/	4d\ 4g#X	] p	4d/	-dem-	.	4g#X\	-dem-	.	4b\	-dem-	.
2.AA;\ 2.A	2.a;/	2.c\	.	2.c;/	-pteur	.	2.a;\	-pteur	.	2.a;\	-pteur	.
!LO:LB:g=original	!LO:LB:g=original	!LO:LB:g=original	!	!LO:LB:g=original	!	!	!LO:LB:g=original	!	!	!LO:LB:g=original	!	!
=7||	=7||	=7||	=7||	=7||	=7||	=7||	=7||	=7||	=7||	=7||	=7||	=7||
!	!	!	!	!	!	!LO:DY:a	!	!	!LO:DY:a	!	!	!LO:DY:a
2.C\ 2.G	4e\ 4cc	[>2.gn/	mf	4e/	Né	mf	4g/	Né	mf	4cc\	Né	mf
.	4d\ 4b	.	.	4d/	du	.	4g/	du	.	4cc\	du	.
.	4e\ 4cc	.	.	4e/	sein	.	4g/	sein	.	4cc\	sein	.
2.C\ 2.G	4f\ 4dd	2.g/]	.	4f/	de	.	4g/	de	.	4dd\	de	.
.	4e\ 4cc	.	.	4e/	Ma-	.	4g/	Ma-	.	4cc\	Ma-	.
.	4d\ 4b	.	.	4d/	-ri-	.	4g/	-ri-	.	4b\	-ri-	.
2.GG\ 2.G	2.g/ 2.b	2.d/	.	2.d/	-e	.	2.g/	-e	.	2.b\	-e	.
=8	=8	=8	=8	=8	=8	=8	=8	=8	=8	=8	=8	=8
[2.C\ [2.G	4e\ 4cc	2.g/	.	4e/	Dans	.	4g/	Dans	.	4cc\	Dans	.
.	4d\ 4b	.	.	4d/	la	.	4g/	la	.	4b\	la	.
.	4e\ 4cc	.	.	4e/	cré-	.	4g/	cré-	.	4cc\	cré-	.
2.C\] 2.G]	4f\ 4dd	2.g/	.	4f/	-che	.	4g/	-che	.	4dd\	-che	.
.	4e\ 4cc	.	.	4e/	bé-	.	4g/	bé-	.	4cc\	bé-	.
.	4d\ 4b	.	.	4d/	-ni-	.	4g/	-ni-	.	4b\	-ni-	.
2.GG\ 2.G	2.g/ 2.b	2.d/	.	2.d/	-e	.	2.g/	-e	.	2.b\	-e	.
*	*v	*v	*	*	*	*	*	*	*	*	*	*
=9	=9	=9	=9	=9	=9	=9	=9	=9	=9	=9	=9
4C\ 4G	4e/ 4cc	.	4e/	Nous	.	4g/	Nous	.	4cc\	Nous	.
4FF/ 4F	4f/ 4a	.	4f/	ou-	.	4f/	ou-	.	4a\	ou-	.
4DD/ 4D	4d/ 4f 4b	.	4d/	-vre	.	4f/	-vre	.	4b\	-vre	.
4EE/ 4E	4d/ 4e 4g#X	.	4d/	le	.	4e/	le	.	4g#X/	le	.
!	!	!	!	!	!LO:DY:a	!	!	!LO:DY:a	!LO:TX:t=P:problem:LO:N:vis=4	!	!LO:DY:a
2AA;\ 2A	2c;/ 2e 2a	.	2c;/	ciel	p	2e;/	ciel	p	2a;/	ciel	p
!LO:LB:g=original	!LO:LB:g=original	!	!LO:LB:g=original	!	!	!LO:LB:g=original	!	!	!LO:LB:g=original	!	!
=10	=10	=10	=10	=10	=10	=10	=10	=10	=10	=10	=10
*	*^	*	*	*	*	*	*	*	*	*	*
2.CC/ 2.C	4e\ 4cc	2.g/	mf	4e/	En	.	4g/	En	.	4cc\	En	.
.	4d\ 4b	.	.	4d/	ce	.	4g/	ce	.	4b\	ce	.
.	4e\ 4cc	.	.	4e/	jour	.	4g/	jour	.	4cc\	jour	.
4BB\ 4G	4f\ 4dd	2g/	.	4f/	so-	.	4g/	so-	.	4dd\	so-	.
4C\ 4G	4e\ 4cc	.	.	4e/	-len-	.	4g/	-len-	.	4cc\	-len-	.
2GG^\ 2G	2g/ 2b	2d/	.	2d/	-nel	.	2g/	-nel	.	2b\	-nel	.
=11	=11	=11	=11	=11	=11	=11	=11	=11	=11	=11	=11	=11
2.C\ 2.G	4e\ 4cc	2.g/	.	4e/	Chan-	.	4g/	Chan-	.	4cc\	Chan-	.
.	4d\ 4b	.	.	4d/	-tons	.	4g/	-tons	.	4b\	-tons	.
.	4e\ 4cc	.	.	4e/	chan-	.	4g/	chan-	.	4cc\	chan-	.
4BB\ 4G	4f\ 4dd	2g/	.	4f/	-tons	.	4g/	-tons	.	4dd\	-tons	.
4C\ 4G	4e\ 4cc	.	.	4e/	no-	.	4g/	no-	.	4cc\	no-	.
2GG\ 2G	2g/ 2b	2d/	.	2d/	-ël	.	2g/	-ël	.	2b\	-ël	.
=12	=12	=12	=12	=12	=12	=12	=12	=12	=12	=12	=12	=12
!	!	!	!	!	!	!	!	!	!LO:DY:a	!	!	!LO:DY:a
2EE/ 2E	2ee/	1e 1g#X	.	2.e/	Chan-	.	(2g#X/	Chan-	f	(2ee\	Chan-	f
!LO:TX:a:i:t=rall.	!	!	!	!	!	!	!	!	!	!LO:TX:a:i:t=rall.	!	!
4GG#X\ 4G#X	4e/ 4b 4dd	.	.	.	.	.	4b\)	.	.	4dd\)	.	.
2AA\ 2A	2e/ 2a 2cc	.	.	2e/	-tons	.	2a/	-tons	.	2cc\	-tons	.
.	.	1ryy	.	.	.	.	.	.	.	.	.	.
4EE/ 4E	4d/ 4g# 4b	.	.	4d/	no-	.	4g#X/	no-	.	4b\	no-	.
2AA;\ 2A	2c;/ 2cc	.	.	2c;/	-ël	.	2a;/	-ël	.	2a;/	-ël	.
!LO:LB:g=original	!LO:LB:g=original	!LO:LB:g=original	!	!LO:LB:g=original	!	!	!LO:LB:g=original	!	!	!LO:LB:g=original	!	!
*	*v	*v	*	*	*	*	*	*	*	*	*	*
=13	=13	=13	=13	=13	=13	=13	=13	=13	=13	=13	=13
2C\ 2G 2c	2e/ 2g 2cc	mf	2e/	Il	.	2g/	Il	.	2cc\	Il	.
4C\ 4G 4B	4d/ 4g 4dd	.	4g/	vient	.	4b\	vient	.	4dd\	vient	.
2C\ 2G 2c	2e/ 2g 2cc	.	2g/	et	.	2cc\	et	.	2ee\	et	.
4C\ 4A 4c	4f\ 4cc 4ff	.	4a/	l`e-	.	4cc\	l`e-	.	4ff\	l`e-	.
2C\ 2G 2c	2g\ 2cc 2ee	.	2g/	-sprit	.	2cc\	-sprit	.	2ee\	-sprit	.
4GG/ 4G	4g\ 4b 4dd	.	4g/	per-	.	4b\	per-	.	4dd\	per-	.
2.CC^>/ 2.C	2.g^\ 2.cc 2.ee	.	2.c^>/	-vers	.	2.cc^\	-vers	.	2.ee^\	-vers	.
=14	=14	=14	=14	=14	=14	=14	=14	=14	=14	=14	=14
!	!	!	!	!	!	!	!	!	!	!	!LO:DY:a
2C\ 2G 2c	2e/ 2g 2cc	.	2e/	trem-	.	2g/	trem-	.	2cc\	trem-	<
4C\ 4G 4B	4g\ 4b 4dd	.	4g/	-ble et	.	4b\	-ble et	.	4dd\	-ble et	.
2C\ 2G 2c	2g\ 2cc 2ee	.	2g/	s`en	.	2cc\	s`en	.	2ee\	s`en	.
4C\ 4A 4c	4f\ 4cc 4ff	.	4a/	fuit	.	4cc\	fuit	.	4ff\	fuit	[
2C\ 2G 2c	2g\ 2cc 2ee	.	2g/	aux	.	2cc\	aux	.	2ee\	aux	.
4FF/ 4F	4a\ 4dd	.	4f/	en-	.	4a/	en-	.	4dd\	en-	.
2.EE^>/ 2.E	2.g#X^\ 2.ee	.	2.e^>/	-fers	.	2.g#X/	-fers	.	2.ee^\	-fers	.
=15	=15	=15	=15	=15	=15	=15	=15	=15	=15	=15	=15
*	*^	*	*	*	*	*	*	*	*	*	*
!	!	!	!	!	!	!LO:DY:a	!	!	!LO:DY:a	!LO:TX:a:i:t=piu lento.	!	!LO:DY:a
2FF^/ 2F	4dd^/	2f\ 2a	.	2.f/	la	fp	2a/	la	fp	2.dd\	la	fp
!	!LO:TX:b:i:t=piu lento.	!	!	!	!	!	!	!	!	!	!	!
.	4dd^/	.	.	.	.	.	.	.	.	.	.	.
4DD^/ 4D	4f^\ 4b 4dd	1.ryy	.	.	.	.	4b/	.	.	.	.	.
2EE^/ 2E	2e^/ 2a 2cc	.	.	2e/	paix	.	2a/	paix	.	2cc\	paix	.
4EE^/ 4E	4d^/ 4g#X 4b	.	p	4d/	l`a-	.	4g#X/	l`a-	.	4b\	l`a-	.
2.AA/ 2.A	2.c^/ 2.e 2.a	.	.	2.c/	-mour	.	2.a/	-mour	.	2.a\	-mour	.
.	.	4ryy	.	.	.	.	.	.	.	.	.	.
!LO:PB:g=original	!LO:PB:g=original	!LO:PB:g=original	!	!	!LO:PB:g=original	!	!	!LO:PB:g=original	!	!	!LO:PB:g=original	!
=16	=16	=16	=16	=16	=16	=16	=16	=16	=16	=16	=16	=16
!	!	!	!	!	!	!LO:DY:a	!	!	!LO:DY:a	!	!	!LO:DY:a
2.CC/ 2.C	4e\ 4cc	(2.g/	.	4e/	la	p	4gn/	la	p	4cc\	la	p
.	4d\ 4b	.	.	4d/	grâ-	.	4g/	grâ-	.	4b\	grâ-	.
.	4e\ 4cc	.	.	4e/	-ce	.	4g/	-ce	.	4cc\	-ce	.
4BB\ 4G	4f\ 4dd	2.g/	.	4f/	la	.	4g/	la	.	4dd\	la	.
4C\ 4G	4e\ 4cc	.	.	4e/	con-	.	4g/	con-	.	4cc\	con-	.
4GG\ 4G	4d\ 4b	.	.	4d/	-cor-	.	4g/	-cor-	.	4b\	-cor-	.
2.GG^\ 2.G	2.g^/) 2.b	2.d\	.	2.d/	-de	.	2.g/	-de	.	2.b\	-de	.
=17	=17	=17	=17	=17	=17	=17	=17	=17	=17	=17	=17	=17
2.C\ 2.G	4e\ 4cc	(>2.g/	.	4e/	et	.	4g/	et	.	4cc\	et	.
.	4d\ 4b	.	.	4d/	la	.	4g/	la	.	4b\	la	.
.	4e\ 4cc	.	.	4e/	mi-	.	4g/	mi-	.	4cc\	mi-	.
4BB\ 4G	4f\ 4dd	2.g/	.	4f/	-sé-	.	4g/	-sé-	.	4dd\	-sé-	.
4C\ 4G	4e\ 4cc	.	.	4e/	-ri-	.	4g/	-ri-	.	4cc\	-ri-	.
4GG\ 4G	4d\ 4b	.	.	4d/	-cor-	.	4g/	-cor-	.	4b\	-cor-	.
2.GG\ 2.G	2.b/)	2.d/	.	2.d/	-de	.	2.g/	-de	.	2.b\	-de	.
*	*v	*v	*	*	*	*	*	*	*	*	*	*
=18	=18	=18	=18	=18	=18	=18	=18	=18	=18	=18	=18
2C\ 2G	2e/ 2cc	.	2e/	des-	.	2g/	des-	.	2cc\	des-	.
!	!	!LO:HP:t=cres.	!	!	!	!	!	!	!	!	!LO:DY:a
4FF\ 4F	4f/ 4b	<	4f/	-cen-	.	4f/	-cen-	.	4a/	-cen-	<
2DD/ 2D	2d/ 2f 2b	.	2d/	-dent	.	2f/	-dent	.	2b/	-dent	.
4EE/ 4E	4d/ 4g#X	.	4d/	du	.	4e/	du	.	4g#X/	du	.
2.AA;/	2.c;/ 2.a	f	2.c;/	ciel	.	2.e;/	ciel	.	2.a;/	ciel	[[
!LO:LB:g=original	!LO:LB:g=original	!	!LO:LB:g=original	!	!	!LO:LB:g=original	!	!	!LO:LB:g=original	!	!
=19	=19	=19	=19	=19	=19	=19	=19	=19	=19	=19	=19
*	*^	*	*	*	*	*	*	*	*	*	*
!	!	!	!	!	!	!LO:DY:a	!	!	!LO:DY:a	!	!	!LO:DY:a
2CC/ 2C	(4e\ 4cc	2.g/	p	4e/	Aux	<	4e/	Aux	<	4cc\	Aux	<
.	4d\ 4b	.	.	4d/	pieds	.	4g/	pieds	.	4b\	pieds	.
4C\ 4G	4e\ 4cc	.	.	4e/	de	.	4g/	de	.	4cc\	de	.
!	!	!	!	!	!	!LO:DY:a	!	!	!LO:DY:a	!	!	!LO:DY:a
4BB\ 4G	4f\ 4dd	2g/	.	4f/	l`E-	[ >	4g/	l`E-	[ >	4dd\	l`E-	[ >
4C\ 4G	4e\ 4cc	.	.	4e/	-ter-	.	4g/	-ter-	.	4b\	-ter-	.
2GG^\ 2G	2b^/)	2d/	.	2d/	-nel	]]	2g/	-nel	]]	2b\	-nel	]]
=20	=20	=20	=20	=20	=20	=20	=20	=20	=20	=20	=20	=20
2.C\ 2.G	(4e\ 4cc	2.g/	.	4e/	Chan-	.	4g/	Chan-	.	4cc\	Chan-	.
.	4d\ 4b	.	.	4d/	-tons	.	4g/	-tons	.	4b\	-tons	.
.	4e\ 4cc	.	.	4e/	chan-	.	4g/	chan-	.	4cc\	chan-	.
4BB\ 4G	4f\ 4dd	2g/	.	4f/	-tons	.	4g/	-tons	.	4dd\	-tons	.
4C\ 4G	4e\ 4cc	.	.	4e/	no-	.	4g/	no-	.	4cc\	no-	.
2GG^\ 2G	2b^/)	2d/	.	2d/	-ël	.	2g/	-ël	.	2b\	-ël	.
*	*v	*v	*	*	*	*	*	*	*	*	*	*
=	=	=	=	=	=	=	=	=	=	=	=
!	!	!	!	!	!	!	!	!LO:DY:a	!	!	!LO:DY:a
2EE\ 2E	2e\ 2g 2ee	.	2.e/	Chan-	.	2g#X/	Chan-	f	(2ee\	Chan-	f
4GG#X\ 4G#X	4e\ 4b 4dd	.	.	.	.	4b/	.	.	4dd\)	.	.
!	!	!	!	!	!	!	!	!	!LO:TX:a:i:t=rall	!	!
2AA\ 2A	2e\ 2a 2cc	.	2e/	-tons	.	2a/	-tons	.	2cc\	-tons	.
4EE/ 4E	4d/ 4g#X 4b	.	4d/	no-	.	4g#X/	no-	.	4b\	no-	.
2.AA;<\ 2.A	2.c;</ 2.a	.	2.c;/	-ël	.	2.a;/	-ël	.	2.a;/	-ël	.
!LO:LB:g=original	!LO:LB:g=original	!	!LO:LB:g=original	!	!	!LO:LB:g=original	!	!	!LO:LB:g=original	!	!
=21	=21	=21	=21	=21	=21	=21	=21	=21	=21	=21	=21
*	*^	*	*	*	*	*	*	*	*	*	*
2GG\ 2G	4b/	2d\	f <	2r	.	.	2r	.	.	2r	.	.
.	4a/	.	.	.	.	.	.	.	.	.	.	.
4FF\ 4F	4g/ 4b	4d\	.	4r	.	.	4r	.	.	4r	.	.
=22	=22	=22	=22	=22	=22	=22	=22	=22	=22	=22	=22	=22
2.EE/ 2.E	4cc/	2e\ 2g	.	2r	.	.	2r	.	.	2r	.	.
.	4b/	.	.	.	.	.	.	.	.	.	.	.
.	4g/ 4cc	4e\	.	4r	.	.	4r	.	.	4r	.	.
=23	=23	=23	=23	=23	=23	=23	=23	=23	=23	=23	=23	=23
2DD/ 2D	4dd/	2.f#X\	.	2r	.	.	2r	.	.	2r	.	.
.	4ee/	.	.	.	.	.	.	.	.	.	.	.
4DD/ 4D	4dd/	.	.	4r	.	.	4r	.	.	4r	.	.
*	*v	*v	*	*	*	*	*	*	*	*	*	*
=24	=24	=24	=24	=24	=24	=24	=24	=24	=24	=24	=24
2.GGG;/ 2.GG	2.g\ 2.b 2.dd	[	2r	.	.	2r	.	.	2r	.	.
.	.	.	4r	.	.	4r	.	.	4r	.	.
=25	=25	=25	=25	=25	=25	=25	=25	=25	=25	=25	=25
!	!	!	!	!	!	!	!	!	!	!	!LO:DY:a
2c\	4cc\	.	2e/	Dons	.	2g/	Dons	.	2cc\	Dons	f
.	4g\	.	.	.	.	.	.	.	.	.	.
4G\	4b\ 4dd	.	4g/	pré-	.	4b\	pré-	.	4dd\	pré-	.
2C/	4cc\ 4ee	.	2g/	-ci-	.	2cc\	-ci-	.	2ee\	-ci-	.
.	4g\	.	.	.	.	.	.	.	.	.	.
4F\	4a\ 4ff	.	4a/	-eux	.	4cc\	-eux	.	4ff\	-eux	.
2C\ 2c	4cc\ 4ee	.	2g/	du	.	2cc\	du	.	2ee\	du	.
.	4g\	.	.	.	.	.	.	.	.	.	.
4G\	4b\ 4dd	.	4g/	sei-	.	4b\	sei-	.	4dd\	sei-	.
2.C/	4cc\	.	2.c^>/	-gneur	.	2.cc^\	-gneur	.	2.ee^\	-gneur	.
.	4ee\	.	.	.	.	.	.	.	.	.	.
.	4g\	.	.	.	.	.	.	.	.	.	.
!LO:LB:g=original	!LO:LB:g=original	!	!LO:LB:g=original	!	!	!LO:LB:g=original	!	!	!LO:LB:g=original	!	!
=26	=26	=26	=26	=26	=26	=26	=26	=26	=26	=26	=26
!	!	!	!	!	!LO:DY:a	!	!	!LO:DY:a	!	!	!LO:DY:a
2c\	4cc\	.	2e/	ne	<	2g/	ne	<	2cc\	ne	<
.	4g\	.	.	.	.	.	.	.	.	.	.
4G\	4b\ 4dd	.	4g/	quit-	.	4b\	quit-	.	4dd\	quit-	.
2C\	4cc\ 4ee	.	2g/	-tez	.	2cc\	-tez	.	2ee\	-tez	.
.	4g\	.	.	.	.	.	.	.	.	.	.
!	!	!	!	!	!LO:DY:a	!	!	!LO:DY:a	!	!	!LO:DY:a
4FF/	4a\ 4ff	.	4a/	ja-	[ >	4cc\	ja-	[ >	4ff\	ja-	[ >
2C/	4cc\ 4ee	.	2g/	-mais	.	2cc/	-mais	.	2ee\	-mais	.
.	4g\	.	.	.	.	.	.	.	.	.	.
4FF\ 4F	4a\ 4dd	.	4f/	mon-	.	4a/	mon-	.	4dd\	mon-	.
2.EE^>/ 2.E	2.g#X^\ 2.ee	sf	2.e^>/	-coeur	]	2.g#X^>/	-coeur	]	2.ee^\	-coeur	]
=27	=27	=27	=27	=27	=27	=27	=27	=27	=27	=27	=27
*	*^	*	*	*	*	*	*	*	*	*	*
!	!	!	!	!	!	!LO:DY:a	!	!	!LO:DY:a	!	!	!LO:DY:a
2FF\ 2F	4dd/	2f\ 2a	p	2.f/	di-	p	2a/	di-	p	2.dd\	di-	p
.	4dd/	.	.	.	.	.	.	.	.	.	.	.
4DD\ 4D	4dd/	4f\ 4b	.	.	.	.	4b/	.	.	.	.	.
2EE\ 2E	2a/ 2cc	2e\	.	2e/	-vin	.	2a/	-vin	.	2cc\	-vin	.
4EE\ 4E	4b/	4d\ 4g	.	4d/	ber-	.	4g#X/	ber-	.	4b\	ber-	.
2.AA;\ 2.A	2.a;/	2.c\	.	2.c;/	-ceau	.	2.a;/	-ceau	.	2.a;/	-ceau	.
*	*v	*v	*	*	*	*	*	*	*	*	*	*
=28	=28	=28	=28	=28	=28	=28	=28	=28	=28	=28	=28
!	!	!	!	!	!LO:DY:a	!	!	!LO:DY:a	!	!	!LO:DY:a
2.C\ 2.G	4e\ 4cc	p	4e/	Qu`u-	p	4gn/	Qu`u-	p	4cc\	Qu`u-	p
.	4d\ 4b	.	4d/	-ne	.	4g/	-ne	.	4b\	-ne	.
.	4e\ 4cc	.	4e/	cé-	.	4g/	cé-	.	4cc\	cé-	.
4GG/	4f\ 4dd	.	4f/	-les-	.	4g/	-les-	.	4dd\	-les-	.
4G\	4e\ 4cc	.	4e/	-te	.	4g/	-te	.	4cc\	-te	.
4G\	4d\ 4b	.	4d/	flam-	.	4g/	flam-	.	4b\	flam-	.
!LO:TX:t=P:problem:LO:N:vis=4	!	!	!	!	!	!	!	!	!	!	!
!LO:TX:a:t=M.G.	!	!	!	!	!	!	!	!	!	!	!
2gg/	2.d\ 2.b	.	2.d/	-me	.	2.g/	-me	.	2.b\	-me	.
4r	.	.	.	.	.	.	.	.	.	.	.
!LO:LB:g=original	!LO:LB:g=original	!	!LO:LB:g=original	!	!	!LO:LB:g=original	!	!	!LO:LB:g=original	!	!
=29	=29	=29	=29	=29	=29	=29	=29	=29	=29	=29	=29
*	*^	*	*	*	*	*	*	*	*	*	*
!	!	!	!	!	!	!LO:DY:a	!	!	!LO:DY:a	!	!	!LO:DY:a
2.C\ 2.G	4cc\	4e\	.	4e/	Au-	<	4g/	Au-	<	4cc\	Au-	<
.	4b\	4d\	.	4d/	-près	.	4g/	-près	.	4b\	-près	.
.	4cc\	4e\	.	4e/	de	.	4g/	de	.	4cc\	de	.
!	!	!	!	!	!	!LO:DY:a	!	!	!LO:DY:a	!	!	!LO:DY:a
4GG/	4dd\	4f\	.	4f/	toi	[ >	4g/	toi	[ >	4dd\	toi	[ >
4G\	4cc\	4e\	.	4e/	m`en	.	4g/	m`en	.	4cc\	m`en	.
4G\	4dd\	4d\	.	4d/	flam-	.	4g/	flam-	.	4b\	flam-	.
2.GG\ 2.G	2.d\ 2.b	4gg/	.	2.d/	-me	]]	2.g/	-me	]]	2.b\	-me	]]
.	.	4ryy	.	.	.	.	.	.	.	.	.	.
.	.	4r	.	.	.	.	.	.	.	.	.	.
*	*v	*v	*	*	*	*	*	*	*	*	*	*
=30	=30	=30	=30	=30	=30	=30	=30	=30	=30	=30	=30
!	!	!	!	!	!	!	!	!	!	!	!LO:DY:a
2C/	2e/ 2cc	.	2e/	Et	.	2g/	Et	.	2cc\	Et	p
4F\	4f/ 4a	.	4f/	m`em-	.	4f/	m`em-	.	4a/	m`em-	.
2D\	2f/ 2b	.	2d/	-por-	.	2f/	-por-	.	2b/	-por-	.
4E\	4g#X/	.	4d/	-te au	.	4e/	-te au	.	4g#X/	-te au	.
2.AA\ 2.A	2.c;/ 2.a	.	2.c;/	ciel	.	2.a;/	ciel	.	2.a;/	ciel	.
!LO:LB:g=original	!LO:LB:g=original	!	!LO:LB:g=original	!	!	!LO:LB:g=original	!	!	!LO:LB:g=original	!	!
=31	=31	=31	=31	=31	=31	=31	=31	=31	=31	=31	=31
2.C\ 2.G	4e\ 4cc	p	4e/	En	.	4g/	En	.	4cc\	En	.
.	4d\ 4b	.	4d/	ce	.	4g/	ce	.	4b\	ce	.
.	4e\ 4cc	.	4e/	jour	.	4g/	jour	.	4cc\	jour	.
4GG/	4f\ 4dd	.	4f/	se-	.	4g/	se-	.	4dd\	se-	.
4G\	4e\ 4cc	.	4e/	-len-	.	4g/	-len-	.	4cc\	-len-	.
!LO:TX:a:t=M.G.	!	!	!	!	!	!	!	!	!	!	!
4gg/	2d\ 2b	.	2d/	-nel	.	2g/	-nel	.	2b\	-nel	.
4r	.	.	.	.	.	.	.	.	.	.	.
=32	=32	=32	=32	=32	=32	=32	=32	=32	=32	=32	=32
2.C\ 2.G	(4e\ 4cc	.	4e/	Chan-	.	4g/	Chan-	.	4cc\	Chan-	.
.	4d\ 4b	.	4d/	-tons	.	4g/	-tons	.	4b\	-tons	.
.	4e\ 4cc	.	4e/	chan-	.	4g/	chan-	.	4cc\	chan-	.
4BB\ 4G	4f\ 4dd	.	4f/	-tons	.	4g/	-tons	.	4dd\	-tons	.
4C\ 4G	4e\) 4cc	.	4e/	no-	.	4g/	no-	.	4cc\	no-	.
2GG\ 2G	2.d\ 2.b	.	2.d/	-ël	.	2.g/	-ël	.	2.b\	-ël	.
4FF/ 4F	.	.	.	.	.	.	.	.	.	.	.
=33	=33	=33	=33	=33	=33	=33	=33	=33	=33	=33	=33
!	!	!	!	!	!	!	!	!	!	!	!LO:DY:a
2EE/ 2E	2e\ 2g#X 2ee	f	2.e/	Chan-	.	2.g#X/	Chan-	.	2ee\	Chan-	f
4GG#X\ 4G#X	4e\ 4b 4dd	.	.	.	.	.	.	.	4dd\	.	.
2AA\ 2A	2e\ 2a 2cc	.	2e/	-tons	.	2a/	-tons	.	2cc\	-tons	.
4EE/ 4E	4d/ 4g#X 4b	.	4d/	no-	.	4g#/	no-	.	4b\	no-	.
2.AA;\ 2.A	2.c;/ 2.a	.	2.c;/	-ël	.	2.a;/	-ël	.	2.a;/	-ël	.
=34	=34	=34	=34	=34	=34	=34	=34	=34	=34	=34	=34
1.AAA; 1.AA	1.a; 1.cc 1.ee 1.aa	.	1.r;	.	.	1.r;	.	.	1.r;	.	.
==	==	==	==	==	==	==	==	==	==	==	==
*-	*-	*-	*-	*-	*-	*-	*-	*-	*-	*-	*-
!!!RDF**kern: > = above
!!!RDF**kern: < = below
!!!system-decoration: [(s1,s2,s3)][(s4,s5)]
!!!ENC: Filip Voros
!!!END: 2022-08-08
!!!ENC: Julita Ruszuk
!!!END: 2022-09-04
